X:1
T:Anchors Aweigh
M:4/4
L:1/4
K:C
 z4| C2 E G| A3/2 E/2 A2| c2 d G| c4| A2 c A| G A B c| ^F A d c| B- G- F- D|\
 C2 E G| A3/2 E/2 A2| c2 d G| c4| A3/2- A/2 c A| G A B c| e/2G/2 ^F/2G/2 d/2G/2 F/2G/2|\
 c4| z4|
